!!!!SEGMENT: pl-sa--79-a-ii-19--001-016_siwinski-andrzej--missa-pro-defunctis-sanctus.krn
!!!cenid: 17xx:308
!!!COM: Siwiński, Andrzej
!!!COM-rismID: pe41011487
!!!CDT: <1725->1725
!!!CNT:
!!!OPR: Missa pro defunctis
!!!OTL: Sanctus
!!!OMV: 016
!!!PDT: 1726
!!!AGN: Sacred; Mass
!!!YEC: Copyright 2022 Narodowy Instytut Fryderyka Chopina (https://polishscores.org)
!!!YEM: License CC-BY-4.0 (https://creativecommons.org/licenses/by/4.0)
!!!SMS-siglum: PL-SA
!!!SMS-shelfmark: 79/A II 19
!!!SMS-shelfwork: 001-016 M
!!!NIFC-rismSourceID: 1001070177
!!!NIFC-rismChildID: 1001070177
!!!NIFC-islandoraID: none
!!!URL-pdf-islandora:
!!!URL-scan: https://bc.bdsandomierz.pl/dlibra/publication/1356/edition/1324/content @EN{Scan in the Sandomierz Diocese Digital Library} @PL{Skany w portalu Cyfrowa Biblioteka Diecezjalna w Sandomierzu}
!!!IIIF:
!!!ONB-nifc: Uwaga: części Mszy: Requiem, Kyrie, Dies Irae, Quantus tremor, Tuba mirrum, Mors, Quid sum miser, Rex tremende, Quaerens me, Iuste iudex, Oro supplex, Pie Iesu Domine, Domine Iesu Christe,Quam olim Abrahae, Hostias, Sanctus, Osanna, Benedictus, Agnus Dei
!!!AIN: 1 alto 1 bass 2 oboe 1 organ 1 soprn 1 tenor 2 violn
!!!key: c
**kern	**fba	**kern	**kern	**kern	**text	**mod-text	**kern	**text	**mod-text	**kern	**text	**mod-text	**kern	**text	**mod-text	**kern	**kern
*	*	*group3	*group3	*group2	*	*	*group2	*	*	*group2	*	*	*group2	*	*	*group1	*group1
*part9	*part9	*part8	*part7	*part6	*part6	*part6	*part5	*part5	*part5	*part4	*part4	*part4	*part3	*part3	*part3	*part2	*part1
*staff9	*staff9	*staff8	*staff7	*staff6	*staff6	*staff6	*staff5	*staff5	*staff5	*staff4	*staff4	*staff4	*staff3	*staff3	*staff3	*staff2	*staff1
*I"Baſso pro Organo	*	*I"Violino. 2do	*I"Violino 1mo	*I"Baſso vocali	*	*	*I"Tenore	*	*	*I"Alto.	*	*	*I"Canto.	*	*	*I"Hobois 2do.	*I"Hautbo. 1mo.
*mI"Organo	*	*mI"Violino II	*mI"Violino I	*mI"Basso	*	*	*	*	*	*mI"Alto	*	*	*mI"Soprano	*	*	*mI"Oboe II	*mI"Oboe I
*I'org	*	*I'vl 2	*I'vl 1	*I'B	*	*	*I'T	*	*	*I'A	*	*	*I'S	*	*	*I'ob 2	*I'ob 1
*Iorgan	*	*Ivioln	*Ivioln	*Ibass	*	*	*Itenor	*	*	*Ialto	*	*	*Isoprn	*	*	*Ioboe	*Ioboe
*ICklav	*	*ICstr	*ICstr	*ICvox	*	*	*ICvox	*	*	*ICvox	*	*	*ICvox	*	*	*ICww	*ICww
*IGcont	*	*	*	*	*	*	*	*	*	*	*	*	*	*	*	*	*
*clefF4	*	*clefG2	*clefG2	*clefF4	*	*	*clefC4	*	*	*clefC3	*	*	*clefC1	*	*	*clefG2	*clefG2
*	*	*	*	*	*	*	*mclefGv2	*	*	*mclefG2	*	*	*mclefG2	*	*	*	*
*k[b-e-]	*	*k[e-b-]	*k[b-e-]	*k[b-e-]	*	*	*k[b-e-]	*	*	*k[b-e-]	*	*	*k[b-e-]	*	*	*k[e-b-]	*k[b-e-]
*mk[b-e-a-]	*	*mk[b-e-a-]	*mk[b-e-a-]	*mk[b-e-a-]	*	*	*mk[b-e-a-]	*	*	*mk[b-e-a-]	*	*	*mk[b-e-a-]	*	*	*mk[b-e-a-]	*mk[b-e-a-]
*c:	*	*c:	*c:	*c:	*	*	*c:	*	*	*c:	*	*	*c:	*	*	*c:	*c:
*M2/2	*	*M2/2	*M2/2	*M2/2	*	*	*M2/2	*	*	*M2/2	*	*	*M2/2	*	*	*M2/2	*M2/2
*met(c|)	*	*met(c|)	*met(c|)	*met(c|)	*	*	*met(c|)	*	*	*met(c|)	*	*	*met(c|)	*	*	*met(c|)	*met(c|)
*mmet(c|)	*	*mmet(c|)	*mmet(c|)	*mmet(c|)	*	*	*mmet(c|)	*	*	*mmet(c|)	*	*	*mmet(c|)	*	*	*mmet(c|)	*mmet(c|)
=1	=1	=1	=1	=1	=1	=1	=1	=1	=1	=1	=1	=1	=1	=1	=1	=1	=1
!	!	!	!	!	!	!	!	!	!	!	!	!	!LO:TX:a:t=P:problem=bemole b- ee-	!	!	!	!
!LO:TX:a:i:t=Solo	!	!	!LO:TX:a:t=2:mod=	!LO:TX:a:t=2:mod=	!	!	!LO:TX:a:t=2:mod=	!	!	!	!	!	!	!	!	!	!
!LO:TX:b:t=Sanctus Canto.:mod=	!	!LO:TX:b:t=Sanctus:mod=	!LO:TX:b:t=Sanctus:mod=	!LO:TX:b:t=Sanct(us) c:mod=	!	!	!LO:TX:b:t=Sanctuſ C.:mod=	!	!	!LO:TX:b:t=Sanctus:mod=	!	!	!	!	!	!LO:TX:b:t=Sanctus:mod=	!LO:TX:b:t=Sanctus. Cant.:mod=
4C/	.	0r	0r	0r	.	.	0r	.	.	0r	.	.	8cc\L	San-	San-	0r	0r
!	!	!	!LO:TX:b:t=Cant:mod=	!	!	!	!	!	!	!LO:TX:b:t=Canto:mod=	!	!	!	!	!	!	!
.	.	.	.	.	.	.	.	.	.	.	.	.	16dd\L	.	.	.	.
.	.	.	.	.	.	.	.	.	.	.	.	.	16cc\JJ	.	.	.	.
!	!	!	!	!	!	!	!	!	!	!	!	!	!LO:TX:a:t=P:problem=♮ above	!	!	!	!
4r	.	.	.	.	.	.	.	.	.	.	.	.	4bn\	.	.	.	.
8r	.	.	.	.	.	.	.	.	.	.	.	.	4cc\	-ctus	-ctus	.	.
8E-\L	6	.	.	.	.	.	.	.	.	.	.	.	.	.	.	.	.
8F\	.	.	.	.	.	.	.	.	.	.	.	.	4r	.	.	.	.
8G\J	.	.	.	.	.	.	.	.	.	.	.	.	.	.	.	.	.
=2	=2	=2	=2	=2	=2	=2	=2	=2	=2	=2	=2	=2	=2	=2	=2	=2	=2
4C/	.	.	.	.	.	.	.	.	.	.	.	.	16ee-\LL	San-	San-	.	.
.	.	.	.	.	.	.	.	.	.	.	.	.	16dd\	.	.	.	.
.	.	.	.	.	.	.	.	.	.	.	.	.	16cc\	.	.	.	.
.	.	.	.	.	.	.	.	.	.	.	.	.	16dd\JJ	.	.	.	.
!	!	!	!	!	!	!	!	!	!	!	!	!	!LO:TX:a:t=P:problem=♮ above	!	!	!	!
4r	.	.	.	.	.	.	.	.	.	.	.	.	4bn\	.	.	.	.
8r	.	.	.	.	.	.	.	.	.	.	.	.	4cc\	-ctus	-ctus	.	.
8E-\L	6	.	.	.	.	.	.	.	.	.	.	.	.	.	.	.	.
8F\	.	.	.	.	.	.	.	.	.	.	.	.	4r	.	.	.	.
!	!	!	!	!	!	!	!	!	!	!	!	!	!LO:TX:a:t=P:problem=pojedyncza kreska taktowa	!	!	!	!
8G\J	.	.	.	.	.	.	.	.	.	.	.	.	.	.	.	.	.
=3||	=3||	=3||	=3||	=3||	=3||	=3||	=3||	=3||	=3||	=3||	=3||	=3||	=3||	=3||	=3||	=3||	=3||
*M3/4	*	*M3/4	*M3/4	*M3/4	*	*	*M3/4	*	*	*M3/4	*	*	*M3/4	*	*	*M3/4	*M3/4
!LO:MO:mod=!LO&colon;TX&colon;a&colon;i&colon;t=Tutti	!	!	!	!	!	!	!	!	!	!	!	!	!	!	!	!	!
!LO:TX:b:t=Tutti Sanctus	!	!LO:TX:b:t=Sanctus:mod=	!	!	!	!	!	!	!	!	!	!	!	!	!	!LO:TX:b:t=Sanctus:mod=	!LO:TX:b:t=Sanctus:mod=
4C/	.	4ee-\	2gg\	2c\	San-	San-	2c\	San-	San-	2g\	San-	San-	2ee-\	San-	San-	4g/	4cc\
4c\	.	4cc\	.	.	.	.	.	.	.	.	.	.	.	.	.	4cc/	4ee-\
4C/	.	4ee-\	4gg\	4c\	-ct(us)	-ctus	4c\	-ctus	-ctus	4g\	-ctus	-ctus	4ee-\	-ctus	-ctus	4g/	4cc\
=4	=4	=4	=4	=4	=4	=4	=4	=4	=4	=4	=4	=4	=4	=4	=4	=4	=4
4Bn\	6	4gg\	4dd\	4.Bn\	Do-	Do-	4.d\	Do-	Do-	4.g\	Do-	Do-	4.dd\	Do-	Do-	4g/	4dd\
!	!	!	!	!	!	!	!	!	!	!	!	!	!	!	!	!	!LO:TX:a:t=P:problem=♮ above
4G\	.	4dd\	4gg\	.	.	.	.	.	.	.	.	.	.	.	.	4g/	4bn\
!	!	!	!	!LO:SIC:o=[8B\	!	!	!LO:SIC:v:o=8c\	!	!	!	!	!	!	!	!	!	!
.	.	.	.	8B	-mi-	-mi-	8d\	-mi-	-mi-	8g\	-mi-	-mi-	8dd\	-mi-	-mi-	.	.
!	!	!	!	!LO:SIC:o=4B\]	!	!	!	!	!	!	!	!	!	!	!	!	!
4B\	.	4gg\	4dd\	4B	-n(us)	-nus	4Bn\	-n(us)	-nus	4g\	-nus	-nus	4dd\	-n(us)	-nus	4g/	4dd\
=5	=5	=5	=5	=5	=5	=5	=5	=5	=5	=5	=5	=5	=5	=5	=5	=5	=5
!	!	!	!	!LO:SIC:o=4c\	!	!	!	!	!	!	!	!	!	!	!	!	!
4c\	.	4ee-\	2ee-\	(4c	De-	De-	2c\	De-	De-	2g\	De-	De-	(4ee-\	De-	De-	4a-X/	2ee-\
!	!	!	!	!LO:SIC:o=4B-X\	!	!	!	!	!	!	!	!	!	!	!	!	!
4B-X\	.	4dd\	.	4B-)	.	.	.	.	.	.	.	.	4dd\)	.	.	2a-/	.
.	7	.	.	.	.	.	.	.	.	.	.	.	.	.	.	.	.
4A-X\	#6r	4cc\	4ff#X\	4A-X\	-us	-us	4c\	-us	-us	4f#X\	-us	-us	4cc\	-us	-us	.	4ff#X\
!	!	!LO:LB:g=original	!	!	!	!	!	!	!	!	!	!	!	!	!	!	!
=6	=6	=6	=6	=6	=6	=6	=6	=6	=6	=6	=6	=6	=6	=6	=6	=6	=6
!	!	!	!	!	!	!	!	!	!	!	!	!	!LO:TX:a:t=P:problem=♮ above	!	!	!	!
2G\	.	2bn\	2.gg\	4.G\	Sa-	Sa-	4.d\	Sa-	Sa-	4.g\	Sa-	Sa-	4.bn\	Sa-	Sa-	4g/	2.gg\
!	!	!	!	!	!	!	!	!	!	!	!	!	!	!	!	!LO:TX:a:t=P:problem=♮ above	!
.	.	.	.	.	.	.	.	.	.	.	.	.	.	.	.	4bn\	.
.	.	.	.	8G\	-ba-	-ba-	8d\	-ba-	-ba-	8g\	-ba-	-ba-	8b\	-ba-	-ba-	.	.
4GG/	.	4b\	.	4G\	-otch	-oth	4d\	-oth	-oth	4g\	-oth	-oth	4b\	-oth	-oth	4b\	.
!	!	!	!	!	!	!	!	!	!	!	!	!	!	!	!	!LO:LB:g=original	!
=7	=7	=7	=7	=7	=7	=7	=7	=7	=7	=7	=7	=7	=7	=7	=7	=7	=7
4.E-\	.	2b-X\	4.gg\	4.E-\	Do-	Do-	4.B-X\	Do-	Do-	4.g\	Do-	Do-	4.ee-\	Do-	Do-	4.ee-\	4.gg\
!	!	!	!LO:TX:a:t=P:problem=♭ above	!	!	!	!	!	!	!	!	!	!	!	!	!	!LO:TX:a:t=P:problem=♭ above
8F\L	.	.	8aa-X\	8F\	-mi-	-mi-	8B-\	-mi-	-mi-	8g\	-mi-	-mi-	8ee-\	-mi-	-mi-	8ff\	8aa-X\
8G\	.	4b-\	4gg\	(8G\L	-n(us)	-nus	4B-\	-nus	-nus	4g\	-nus	-nus	4ee-\	-n(us)	-nus	4ee-\	4gg\
!	!	!	!	!LO:TX:a:t=P:problem=♭ above	!	!	!	!	!	!	!	!	!	!	!	!	!
8A-X\J	.	.	.	8A-X\J)	.	.	.	.	.	.	.	.	.	.	.	.	.
!	!	!	!	!	!	!	!LO:LB:g=original	!	!	!	!	!	!	!	!	!	!
=8	=8	=8	=8	=8	=8	=8	=8	=8	=8	=8	=8	=8	=8	=8	=8	=8	=8
!	!	!LO:MO:mod=4.dd	!	!	!	!	!	!	!	!	!	!	!	!	!	!	!
8B-\L	.	4dd\	4.ff\	4.B-\	De-	De-	2B-\	De-	De-	2fn\	De-	De-	2dd\	De-	De-	4.dd\	4.ff\
8c\	.	.	.	.	.	.	.	.	.	.	.	.	.	.	.	.	.
!	!	!LO:MO:mod=.	!	!	!	!	!	!	!	!	!	!	!	!	!	!	!
8B-\	.	4cc\	.	.	.	.	.	.	.	.	.	.	.	.	.	.	.
!	!	!LO:MO:null:mod=8cc	!	!	!	!	!	!	!	!	!	!	!	!	!	!	!
8A-X\J	.	.	8ee-\	8A-X\	.	.	.	.	.	.	.	.	.	.	.	8cc\	8ee-\
4G\	.	4b-\	4dd\	4G\	-us	-us	4B-\	-us	-us	4g\	-us	-us	4dd\	-us	-us	4b-\	4dd\
!LO:LB:g=original	!	!	!	!	!	!	!	!	!	!	!	!	!	!	!	!	!
=9	=9	=9	=9	=9	=9	=9	=9	=9	=9	=9	=9	=9	=9	=9	=9	=9	=9
!	!	!	!	!LO:SIC:o=4G-X\	!	!	!LO:SIC:o=4c\	!	!	!LO:SIC:o=4a-X\	!	!	!	!	!	!	!
4A-X\	.	4cc\	4ee-\	(4G-	Sa-	Sa-	(4c	Sa-	Sa-	(4a-	Sa-	Sa-	(4ee-\	Sa-	Sa-	4cc\	4ee-\
!	!	!	!	!LO:SIC:o=4.B-\	!	!	!LO:SIC:o=(4.B-\	!	!	!LO:SIC:o=(4.f\	!	!	!	!	!	!	!
4B-\	.	4dd\	4.ff\	4.B-)	.	.	4.B-)	.	.	4.f)	.	.	4.dd\)	.	.	4b-\	4.ff\
4BB-/	.	4dd\	.	.	.	.	.	.	.	.	.	.	.	.	.	4f/	.
!	!	!	!	!	!	!	!LO:SIC:o=8B-\)	!	!	!LO:SIC:o=8f\)	!	!	!	!	!	!	!
.	.	.	8ff\	8B-\	-ba-	-ba-	8B-	-ba-	-ba-	8f	-ba-	-ba-	8dd\	-ba-	-ba-	.	8ff\
=10	=10	=10	=10	=10	=10	=10	=10	=10	=10	=10	=10	=10	=10	=10	=10	=10	=10
!	!	!	!LO:SIC:v:o=4ff\	!	!	!	!	!	!	!	!	!	!	!	!	!	!LO:SIC:v:o=4ff\
4E-\	.	4ee-\	4gg\	4E-\	-otch	-oth	4B-\	-oth	-oth	4g\	-oth	-oth	4ee-\	-oth	-oth	4g/	4gg\
!	!	!	!	!	!	!	!	!	!	!	!	!	!LO:LB:g=original	!	!	!	!
4r	.	8ee-\L	8gg\L	4r	.	.	4r	.	.	4r	.	.	4r	.	.	8ee-\L	8gg\L
!	!	!	!LO:TX:a:t=P:problem=♭ above	!	!	!	!	!	!	!	!	!	!	!	!	!	!
.	.	8ff\	8aa-X\	.	.	.	.	.	.	.	.	.	.	.	.	8ff\	8aa-X\
4r	.	8ee-\	8gg\	4r	.	.	4r	.	.	4r	.	.	4r	.	.	8ee-\	8gg\
!	!	!	!	!LO:TX:b:t=Verte Cito:mod=	!	!	!	!	!	!	!	!	!	!	!	!	!
.	.	8dd\J	8ff\J	.	.	.	.	.	.	.	.	.	.	.	.	8dd\J	8ff\J
!	!	!	!	!LO:PB:g=original	!	!	!	!	!	!LO:LB:g=original	!	!	!	!	!	!	!
=11	=11	=11	=11	=11	=11	=11	=11	=11	=11	=11	=11	=11	=11	=11	=11	=11	=11
4.C/	.	4cc\	4ee-\	4.C/	Do-	Do-	4.c\	Do-	Do-	4.g\	Do-	Do-	4.ee-\	Do-	Do-	4cc\	4ee-\
.	.	4ee-\	4gg\	.	.	.	.	.	.	.	.	.	.	.	.	4ee-\	4gg\
8D\L	.	.	.	8D/	-mi-	-mi-	8c\	-mi-	-mi-	8g\	-mi-	-mi-	8ee-\	-mi-	-mi-	.	.
8E-\	.	4ee-\	4gg\	(8E-\L	-n(us)	-nus	4c\	-n(us)	-nus	4g\	-nus	-nus	4ee-\	-nus	-nus	4ee-\	4gg\
8F\J	.	.	.	8F\J)	.	.	.	.	.	.	.	.	.	.	.	.	.
!	!	!	!LO:LB:g=original	!	!	!	!	!	!	!	!	!	!	!	!	!	!
=12	=12	=12	=12	=12	=12	=12	=12	=12	=12	=12	=12	=12	=12	=12	=12	=12	=12
!	!	!	!	!LO:SIC:o=4.G\	!	!	!	!	!	!	!	!	!	!	!	!	!
8G\L	.	4bn\	4.dd\	(4.G	De-	De-	(4.Bn\	De-	De-	2g\	De-	De-	2dd\	De-	De-	4.gg\	4.dd\
8A-X\	.	.	.	.	.	.	.	.	.	.	.	.	.	.	.	.	.
8G\	.	4b\	.	.	.	.	.	.	.	.	.	.	.	.	.	.	.
!	!	!	!	!LO:SIC:o=8F\	!	!	!	!	!	!	!	!	!	!	!	!	!
8F\J	.	.	8dd\	8F)	.	.	8A\)	.	.	.	.	.	.	.	.	8ff\	8dd\
4E-\	.	4ee-\	4gg\	4E-\	-us	-us	4G/	-us	-us	4g\	-us	-us	4ee-\	-us	-us	4ee-\	4gg\
!	!	!	!	!	!	!	!	!	!	!	!	!	!	!	!	!	!LO:LB:g=original
=13	=13	=13	=13	=13	=13	=13	=13	=13	=13	=13	=13	=13	=13	=13	=13	=13	=13
!	!	!	!	!LO:SIC:o=4F\	!	!	!LO:SIC:o=8f\L	!	!	!	!	!	!	!	!	!	!
4F\	.	4cc\	4aa-X\	(4F	Sa-	Sa-	(8fL	Sa-	Sa-	(4a-X\	Sa-	Sa-	(4cc\	Sa-	Sa-	4cc\	4aa-X\
!	!	!	!	!	!	!	!LO:SIC:o=(8e-\J	!	!	!	!	!	!	!	!	!	!
.	.	.	.	.	.	.	8e-J	.	.	.	.	.	.	.	.	.	.
!	!	!LO:TX:a:t=P:problem=♮ above	!	!LO:SIC:o=4.G\	!	!	!	!	!	!	!	!	!LO:TX:a:t=P:problem=♮ above	!	!	!	!
4G\	.	4bn\	4.gg\	4.G)	-ba-	.	4.d\)	.	.	4.g\)	.	.	4.bn\)	.	.	4.g/	4.ddt\
4GG/	.	4b\	.	.	.	.	.	.	.	.	.	.	.	.	.	.	.
!LO:TX:t=P:problem:brak kreski taktowej	!	!LO:TX:t=P:problem:pojedyncza kreska taktowa	!LO:TX:t=P:problem:pojedyncza kreska taktowa	!	!	!	!	!	!	!LO:TX:t=P:problem:pojedyncza kreska taktowa	!	!	!LO:TX:t=P:problem:brak kreski taktowej	!	!	!	!LO:SIC:o=[<8cc\
!	!	!	!	!	!	!	!	!	!	!LO:SIC:o=[8g\	!	!	!	!	!	!	!
.	.	.	8gg\	8G\	-o-	-ba-	8c\	-ba-	-ba-	8g	-ba-	-ba-	8b\	-ba oth	-ba-	8f/	8cc
=14||	=14||	=14||	=14||	=14||	=14||	=14||	=14||	=14||	=14||	=14||	=14||	=14||	=14||	=14||	=14||	=14||	=14||
*M2/2	*	*M2/2	*M2/2	*M2/2	*	*	*M2/2	*	*	*M2/2	*	*	*M2/2	*	*	*M2/2	*M2/2
*met(c|)	*	*met(c|)	*met(c|)	*met(c|)	*	*	*met(c|)	*	*	*met(c|)	*	*	*met(c|)	*	*	*met(c|)	*met(c|)
*mmet(c|)	*	*mmet(c|)	*mmet(c|)	*mmet(c|)	*	*	*mmet(c|)	*	*	*mmet(c|)	*	*	*mmet(c|)	*	*	*mmet(c|)	*mmet(c|)
!LO:TX:b:t=Pleni Sunt caeli:mod=	!	!LO:TX:b:t=Pleni ſunt celi:mod=	!LO:TX:b:t=PleniSunt celi:mod=	!	!	!	!	!	!	!	!	!	!	!	!	!LO:TX:b:t=Pleni Sunt Celi:mod=	!LO:TX:b:t=Pleni Sunt Coeli:mod=
!	!	!	!	!LO:SIC:o=8C/	!	!	!LO:SIC:o=8c\	!	!	!LO:SIC:o=8g,\]	!	!	!	!	!	!	!LO:SIC:o=8cc\]
8C/L	.	8cc\	8gg\	8C,	-th	-oth.	8c,	-oth	-oth.	8g,	-oth	-oth.	8cc,\	.	oth.	8e-/	8cc
8C/	.	8r	8r	8c\	Ple-	Ple-	8c\	Pleni	Ple-	8g\	Ple-	Ple-	8ee-\	ple-	Ple-	8r	8r
8C/	.	4r	4r	8c\	-ni	-ni	8e-\	.	-ni	8g\	-ni	-ni	8ee-\	-ni	-ni	4r	4r
8C/J	.	.	.	8c\	ſunt	sunt	8c\	sunt	sunt	8g\	sunt	sunt	8ee-\	sunt	sunt	.	.
!	!	!	!	!LO:SIC:o=8Bn\L	!	!	!	!	!	!	!	!	!	!	!	!	!
8BBn/L	6	2rg	2rg	(8BL	Coe-	coe-	(8Bn\L	Coe-	coe-	4g\	Coe-	coe-	(8dd\L	Coe-	coe-	2rg	2rg
!	!	!	!	!LO:SIC:o=8A\J	!	!	!	!	!	!	!	!	!	!	!	!	!
8AA/	.	.	.	8AJ)	.	.	8c\J)	.	.	.	.	.	8cc\J)	.	.	.	.
8BB/	.	.	.	8B\	-li	-li	8d\	-li	-li	8g\	-li	-li	8dd\	-li	-li	.	.
8GG/J	.	.	.	8G\	et	et	8B\	et	et	8g\	et	et	8dd\	et	et	.	.
!	!	!	!	!	!	!	!LO:LB:g=original	!	!	!	!	!	!	!	!	!	!
=15	=15	=15	=15	=15	=15	=15	=15	=15	=15	=15	=15	=15	=15	=15	=15	=15	=15
!LO:TX:a:t=P:problem=mixed beam	!	!	!	!	!	!	!	!	!	!	!	!	!	!	!	!	!
8C/L	.	8rg	8r	8c\	ter-	ter-	8c\	ter-	ter-	8g\	ter-	ter-	8ee-\	ter-	ter-	8r	8r
8c\	.	8cc\L	8gg\L	8C/	-ra	-ra	8c\	-ra	-ra	8g\	-ra	-ra	8ee-\	-ra	-ra	8cc\L	8ee-\L
8c\	.	8ee-\	8gg\	4r	.	.	4r	.	.	4r	.	.	4r	.	.	8cc\	8ee-\
8c\J	.	8cc\J	8gg\J	.	.	.	.	.	.	.	.	.	.	.	.	8cc\J	8ee-\J
8Bn\L	6	4dd\	4gg\	2rC	.	.	2r	.	.	2r	.	.	2r	.	.	4g/	4dd\
8A\	.	.	.	.	.	.	.	.	.	.	.	.	.	.	.	.	.
!	!	!	!	!	!	!	!	!	!	!	!	!	!	!	!	!LO:TX:a:t=P:problem=♮ above	!
8B\	.	8bn\L	8gg\L	.	.	.	.	.	.	.	.	.	.	.	.	8bn\L	8dd\L
8G\J	.	8dd\J	8gg\J	.	.	.	.	.	.	.	.	.	.	.	.	8b\J	8dd\J
!	!	!LO:LB:g=original	!	!	!	!	!	!	!	!	!	!	!	!	!	!LO:LB:g=original	!
=16	=16	=16	=16	=16	=16	=16	=16	=16	=16	=16	=16	=16	=16	=16	=16	=16	=16
!LO:TX:a:t=P:problem=mixed beam	!	!	!	!	!	!	!	!	!	!	!	!	!	!	!	!	!
8c\L	.	8cc\L	8gg\L	8r	.	.	8r	.	.	8r	.	.	8r	.	.	8cc\L	8ee-\L
*	*	*	*	*	*ij	*	*	*ij	*	*	*	*	*	*	*	*	*
8C/	.	8cc\	8gg\	8c\	Ple-	Ple-	8c\	Ple-	Ple-	8g\	Pleni	Ple-	8ee-\	pleni	Ple-	8cc\	8ee-\
8C/	.	8ee-\	8gg\	8c\	-ni	-ni	8e-\	-ni	-ni	8g\	.	-ni	8ee-\	.	-ni	8cc\	8ee-\
8C/J	.	8cc\J	8gg\J	8c\	ſunt	sunt	8c\	sunt	sunt	8g\	sunt	sunt	8ee-\	sunt	sunt	8cc\J	8ee-\J
!	!	!	!	!LO:SIC:o=8Bn\L	!	!	!	!	!	!	!	!	!	!	!	!	!
8BBn/L	6	4dd\	4gg\	(8BL	Coe-	coe-	(8Bn\L	Coe-	coe-	4g\	Coe-	coe-	(8dd\L	Coe-	coe-	4g/	4dd\
!	!	!	!	!LO:SIC:o=(8A\J	!	!	!	!	!	!	!	!	!	!	!	!	!
8AA/	.	.	.	8AJ)	.	.	8c\J)	.	.	.	.	.	8cc\J)	.	.	.	.
!	!	!LO:TX:a:t=P:problem=♮ above	!	!LO:SIC:o=8B\)	!	!	!	!	!	!	!	!	!	!	!	!	!
8BB/	.	8bn\L	8dd\L	8B	-li	-li	8d\	-li	-li	8g\	-li	-li	8dd\	-li	-li	8bn\L	8dd\L
!	!	!	!	!LO:LB:g=original	!	!	!	!	!	!	!	!	!	!	!	!	!
8GG/J	.	8dd\J	8gg\J	8G\	et	et	8B\	et	et	8g\	et	et	8dd\	et	et	8b\J	8dd\J
!LO:LB:g=original	!	!	!	!	!	!	!	!	!	!LO:PB:g=original	!	!	!	!	!	!	!
=17	=17	=17	=17	=17	=17	=17	=17	=17	=17	=17	=17	=17	=17	=17	=17	=17	=17
4C/	.	8ee-\L	8gg\L	8c\	ter-	ter-	8c\	ter-	ter-	8g\	ter-	ter-	8ee-\	ter-	ter-	8cc\L	8ee-\L
!	!	!LO:SIC:o=8ee-\	!	!	!	!	!	!	!	!	!	!	!	!	!	!	!
.	.	8ee-J	8gg\J	8C/	-ra	-ra	8c\	-ra	-ra	8g\	-ra	-ra	8ee-\	-ra	-ra	8cc\J	8ee-\J
*	*	*	*	*	*Xij	*	*	*Xij	*	*	*	*	*	*	*	*	*
8r	.	8r	8r	8r	.	.	8r	.	.	8r	.	.	8r	.	.	8r	8r
!	!	!LO:SIC:o=8cc\J	!	!	!	!	!	!	!	!	!	!	!	!	!	!	!
8E-\	6	8cc	8gg\	8E-\	Coe-	coe-	8c\	Coe-	coe-	8g\	Coe-	coe-	8ee-\	Coe-	coe-	8ee-\	8gg\
!LO:TX:a:t=P:problem=mixed beam	!	!	!	!	!	!	!	!	!	!	!	!	!	!	!	!	!
8F\L	.	8cc\L	8aa-X\L	8F\	-li	-li	8c\	-li	-li	8a-X\	-li	-li	8cc\	-li	-li	16ff\LL	16aa-X\LL
.	.	.	.	.	.	.	.	.	.	.	.	.	.	.	.	16ee-\	16gg\
!	!	!	!LO:SIC:o=8aa-\J	!LO:SIC:v:o=8C/	!	!	!	!	!	!	!	!	!	!	!	!	!
8D\	.	8dd\	8aa-	8D/	et	et	8d\	et	et	8a-\	et	et	8dd\	et	et	16dd\	16ff\
.	.	.	.	.	.	.	.	.	.	.	.	.	.	.	.	16cc\JJ	16ee-\JJ
!	!	!LO:SIC:v:o=8b-\	!LO:SIC:o=8gg\L	!	!	!	!	!	!	!	!	!	!LO:TX:a:t=P:problem=♮ above	!	!	!	!
8G\	.	8bn	8gg	4G\	ter-	ter-	4d\	ter-	ter-	4g\	ter-	ter-	4bn\	ter-	ter-	8.g/L	8.dd\L
!	!	!LO:TX:a:t=P:problem=♮ above	!	!	!	!	!	!	!	!	!	!	!	!	!	!	!
8GG/J	4	8bn\J	8dd\J	.	.	.	.	.	.	.	.	.	.	.	.	.	.
.	3	.	.	.	.	.	.	.	.	.	.	.	.	.	.	16f/Jk	16cc\Jk
=18	=18	=18	=18	=18	=18	=18	=18	=18	=18	=18	=18	=18	=18	=18	=18	=18	=18
!	!	!	!	!	!	!	!	!	!	!	!	!	!	!	!	!LO:TX:a:t=P:problem=mixed beam	!
8C/L	.	4cc\	4ee-\	4C/	-ra	-ra	4e-\	-ra	-ra	4g\	-ra	-ra	4cc\	-ra	-ra	8e-/L	8cc\L
8D/	.	.	.	.	.	.	.	.	.	.	.	.	.	.	.	8ee-\	8gg\
!	!	!	!	!	!	!	!	!	!	!	!	!	!LO:LB:g=original	!	!	!	!
8E-/	.	4r	4r	4r	.	.	4r	.	.	4r	.	.	4r	.	.	8ee-\	8gg\
8C/J	.	.	.	.	.	.	.	.	.	.	.	.	.	.	.	8ee-\J	8gg\J
8D\L	.	2rg	2rg	2rC	.	.	2r	.	.	2r	.	.	2rf	.	.	16dd\LL	16ff\LL
.	.	.	.	.	.	.	.	.	.	.	.	.	.	.	.	16ee-\	16gg\
16E-\L	.	.	.	.	.	.	.	.	.	.	.	.	.	.	.	16cc\	16ee-\
16F\JJ	.	.	.	.	.	.	.	.	.	.	.	.	.	.	.	16dd\JJ	16ff\JJ
!LO:TX:a:t=P:problem=mixed beam	!	!	!	!	!	!	!	!	!	!	!	!	!	!	!	!	!
8G\L	.	.	.	.	.	.	.	.	.	.	.	.	.	.	.	8.g/L	8.dd\L
8GG/J	4	.	.	.	.	.	.	.	.	.	.	.	.	.	.	.	.
.	3	.	.	.	.	.	.	.	.	.	.	.	.	.	.	16f/Jk	16cc\Jk
=19	=19	=19	=19	=19	=19	=19	=19	=19	=19	=19-	=19	=19	=19-	=19	=19	=19	=19
!	!	!	!	!	!	!	!	!	!	!	!	!	!LO:TX:a:t=1.:mod=	!	!	!	!
8C/L	.	8r	8r	1r	.	.	1r	.	.	1r	.	.	1r	.	.	4e-/	4cc\
16GG/L	.	8b-X\L	8dd\L	.	.	.	.	.	.	.	.	.	.	.	.	.	.
16AA/J	.	.	.	.	.	.	.	.	.	.	.	.	.	.	.	.	.
8BB-/	.	8b-\	8dd\	.	.	.	.	.	.	.	.	.	.	.	.	4r	4r
8GG/J	.	8b-\J	8dd\J	.	.	.	.	.	.	.	.	.	.	.	.	.	.
8AA/L	.	16a/LL	16cc\LL	.	.	.	.	.	.	.	.	.	.	.	.	2rg	2rg
.	.	16b-/	16dd\	.	.	.	.	.	.	.	.	.	.	.	.	.	.
16BB-/L	.	16g/	16b-\	.	.	.	.	.	.	.	.	.	.	.	.	.	.
16C/JJ	.	16a/JJ	16cc\JJ	.	.	.	.	.	.	.	.	.	.	.	.	.	.
8D/L	.	8f#X/L	4a/	.	.	.	.	.	.	.	.	.	.	.	.	.	.
8DD/J	.	8f#/J	.	.	.	.	.	.	.	.	.	.	.	.	.	.	.
=20	=20	=20	=20	=20-	=20	=20	=20-	=20	=20	=20	=20	=20	=20	=20	=20	=20	=20-
!	!	!	!	!	!	!	!	!	!	!	!	!	!	!	!	!	!LO:TX:a:t=6
4GG/	.	4g/	4g/	2r	.	.	2r	.	.	2r	.	.	16dd\LL	glo-	glo-	00r	00r
.	.	.	.	.	.	.	.	.	.	.	.	.	16cc\	.	.	.	.
.	.	.	.	.	.	.	.	.	.	.	.	.	16dd\	.	.	.	.
.	.	.	.	.	.	.	.	.	.	.	.	.	16ee-\JJ	.	.	.	.
8r	.	4r	4r	.	.	.	.	.	.	.	.	.	16dd\LL	.	.	.	.
.	.	.	.	.	.	.	.	.	.	.	.	.	16ee-\	.	.	.	.
8F#X\	6	.	.	.	.	.	.	.	.	.	.	.	16dd\	.	.	.	.
.	.	.	.	.	.	.	.	.	.	.	.	.	16cc\JJ	.	.	.	.
!	!	!	!LO:LB:g=original	!	!	!	!	!	!	!	!	!	!	!	!	!	!
16G\LL	.	4b-\	4dd\	16G\LL	glo-	glo-	16B-\LL	glo-	glo-	8.d\	glo-	glo-	8.b-\	.	.	.	.
!	!	!	!	!LO:SIC:v:o=16F\	!	!	!	!	!	!	!	!	!	!	!	!	!
16F#X\	.	.	.	16F#\	.	.	16A\	.	.	.	.	.	.	.	.	.	.
16G\	.	.	.	16G\	.	.	16B-\	.	.	.	.	.	.	.	.	.	.
!	!	!	!	!LO:TX:a:t=P:problem=♭ above	!	!	!	!	!	!	!	!	!	!	!	!	!
!LO:SIC:v:o=16A-X\JJ	!	!	!	!LO:SIC:v:o=16A-X\JJ	!	!	!	!	!	!	!	!	!	!	!	!	!
16A\JJ	.	.	.	16A\JJ	.	.	16c\JJ	.	.	16d\	-ri-	-ri-	16a\	-ri-	-ri-	.	.
16G\LL	.	8r	8r	16G\LL	.	.	16B-\LL	.	.	4d\	-a	-a	4g/	-a	-a	.	.
!LO:SIC:v:o=16A-X\	!	!	!	!LO:SIC:v:o=16A-\	!	!	!	!	!	!	!	!	!	!	!	!	!
16A\	.	.	.	16A\	.	.	16c\	.	.	.	.	.	.	.	.	.	.
!	!	!	!	!LO:TX:a:t=P:problem=♭ above	!	!	!	!	!	!	!	!	!	!	!	!	!
!	!	!	!	!LO:SIC:v:o=16G-/	!	!	!LO:SIC:v:o=16d\	!	!	!	!	!	!	!	!	!	!
16G\	.	8b-\	8dd\	16G/	.	.	16B-\	.	.	.	.	.	.	.	.	.	.
!LO:SIC:v:o=16F#\JJ	!	!	!	!	!	!	!LO:SIC:v:o=16B-\JJ	!	!	!	!	!	!	!	!	!	!
16F\JJ	.	.	.	16F\JJ	.	.	16A\JJ	.	.	.	.	.	.	.	.	.	.
!	!	!	!	!	!	!	!LO:PB:g=original	!	!	!	!	!	!	!	!	!	!
=21	=21	=21	=21	=21	=21	=21	=21	=21	=21	=21	=21	=21	=21	=21	=21	=21	=21
*	*	*	*	*	*	*	*	*	*	*	*ij	*	*	*ij	*	*	*
16E-\LL	6	4ee-\	4gg\	8.E-\	.	.	8.e-\	.	.	8.g\	glo-	glo-	16cc\LL	glo-	glo-	.	.
16F\	.	.	.	.	.	.	.	.	.	.	.	.	16b-\	.	.	.	.
16E-\	.	.	.	.	.	.	.	.	.	.	.	.	16cc\	.	.	.	.
16D\JJ	.	.	.	16D\	-ri-	-ri-	16e-\	-ri-	-ri-	16g\	-ri-	-ri-	16dd\JJ	.	.	.	.
16C/LL	.	8r	8r	4C/	-a	-a	4e-\	-a	-a	4g\	-a	-a	16cc\LL	.	.	.	.
16D/	.	.	.	.	.	.	.	.	.	.	.	.	16dd\	.	.	.	.
16E-/	.	8ee-\	8gg\	.	.	.	.	.	.	.	.	.	16cc\	.	.	.	.
16C/JJ	.	.	.	.	.	.	.	.	.	.	.	.	16b-\JJ	.	.	.	.
!	!	!	!	!	!	!	!LO:TX:a:t=a:mod=	!	!	!	!	!	!	!	!	!	!
!	!	!	!	!	!	!	!LO:SIC:v:o=16c\LL	!	!	!	!	!	!	!	!	!	!
16F\LL	.	4cc\	4aa\	16F\LL	glo-	glo-	16A\LL	glo-	glo-	8.f\	glo-	glo-	8.a\	.	.	.	.
!	!	!	!	!	!	!	!LO:TX:a:t=g:mod=	!	!	!	!	!	!	!	!	!	!
!	!	!	!	!	!	!	!LO:SIC:v:o=16B-\	!	!	!	!	!	!	!	!	!	!
16E-\	.	.	.	16E-\	.	.	16G\	.	.	.	.	.	.	.	.	.	.
!	!	!	!	!	!	!	!LO:TX:a:t=a:mod=	!	!	!	!	!	!	!	!	!	!
!	!	!	!	!	!	!	!LO:SIC:v:o=16c\	!	!	!	!	!	!	!	!	!	!
16F\	.	.	.	16F\	.	.	16A\	.	.	.	.	.	.	.	.	.	.
!	!	!	!	!	!	!	!LO:SIC:v:o=16d\JJ	!	!	!	!	!	!	!	!	!	!
16G\JJ	.	.	.	16G\JJ	.	.	16B-\JJ	.	.	16f\	-ri-	-ri-	16g/	-ri-	-ri-	.	.
!LO:LB:g=original	!	!	!	!LO:TX:b:t=P:problem=wykreślony tekst "ri"	!	!	!	!	!	!	!	!	!	!	!	!	!
16F\LL	.	8r	8r	16F\LL	.	.	16A\LL	.	.	4f\	-a	-a	4f/	-a	-a	.	.
*	*	*	*	*	*	*	*	*	*	*	*Xij	*	*	*Xij	*	*	*
16G\	.	.	.	16G\	.	.	16B-\	.	.	.	.	.	.	.	.	.	.
16F\	.	8cc\	8aa\	16F\	.	.	16c\	.	.	.	.	.	.	.	.	.	.
16E-\JJ	.	.	.	16E-\JJ	.	.	16A\JJ	.	.	.	.	.	.	.	.	.	.
=22	=22	=22	=22	=22	=22	=22	=22	=22	=22	=22	=22	=22	=22	=22	=22	=22	=22
8D/L	6	8ff\L	8bb-\L	8D/	.	.	8B-\	.	.	8f\	glo-	glo-	8b-\	glo-	glo-	.	.
16C/L	.	8ff\	8bb-\J	16C/	-ri-	-ri-	16c\	-ri-	-ri-	16g\	-ria	-ri-	16ee-\	-ri-	-ri-	.	.
16BB-/JJ	.	.	.	16BB-/	-a	-a	16B-\	-a	-a	16f\	.	-a	16dd\	-a	-a	.	.
!LO:TX:a:t=P:problem=mixed beam	!	!	!	!	!	!	!	!	!	!	!	!	!	!	!	!	!
8F\L	4	8ff\	16aa\LL	4F\	tu-	tu-	4A\	tu-	tu-	4f\	tu-	tu-	4cc\	tu-	tu-	.	.
.	3	.	16bb-\	.	.	.	.	.	.	.	.	.	.	.	.	.	.
8FF/J	.	8cc\J	16ccc\	.	.	.	.	.	.	.	.	.	.	.	.	.	.
.	.	.	16aa\JJ	.	.	.	.	.	.	.	.	.	.	.	.	.	.
!LO:TX:a:t=P:problem=mixed beam	!	!LO:LB:g=original	!	!	!	!	!	!	!	!	!	!	!	!	!	!	!
8BB-/L	.	4dd\	4bb-\	4BB-/	-a	-a	4B-\	-a	-a	4f\	-a	-a	4b-\	-a	-a	.	.
16d\L	.	.	.	.	.	.	.	.	.	.	.	.	.	.	.	.	.
16c\JJ	.	.	.	.	.	.	.	.	.	.	.	.	.	.	.	.	.
16B-\LL	.	4r	4r	4r	.	.	4r	.	.	4r	.	.	4r	.	.	.	.
16c\	.	.	.	.	.	.	.	.	.	.	.	.	.	.	.	.	.
16B-\	.	.	.	.	.	.	.	.	.	.	.	.	.	.	.	.	.
16A\JJ	.	.	.	.	.	.	.	.	.	.	.	.	.	.	.	.	.
!	!	!	!	!LO:LB:g=original	!	!	!	!	!	!	!	!	!	!	!	!	!
=23	=23	=23	=23	=23	=23	=23	=23	=23	=23	=23	=23	=23	=23	=23	=23	=23	=23
4G\	.	2rg	2r	2r	.	.	2r	.	.	2r	.	.	16dd\LL	glo-	glo-	.	.
.	.	.	.	.	.	.	.	.	.	.	.	.	16cc\	.	.	.	.
.	.	.	.	.	.	.	.	.	.	.	.	.	16dd\	.	.	.	.
.	.	.	.	.	.	.	.	.	.	.	.	.	16ee-\JJ	.	.	.	.
8r	.	.	.	.	.	.	.	.	.	.	.	.	16dd\LL	.	.	.	.
.	.	.	.	.	.	.	.	.	.	.	.	.	16ee-\	.	.	.	.
8F#X\	6	.	.	.	.	.	.	.	.	.	.	.	16dd\	.	.	.	.
.	.	.	.	.	.	.	.	.	.	.	.	.	16cc\JJ	.	.	.	.
16G\LL	.	4b-\	4dd\	16G\LL	glo-	glo-	16B-\LL	glo-	glo-	8.d\	glo-	glo-	8.b-\	.	.	.	.
!	!	!	!	!LO:SIC:v:o=16F\	!	!	!	!	!	!	!	!	!	!	!	!	!
16F#X\	.	.	.	16F#\	.	.	16A\	.	.	.	.	.	.	.	.	.	.
16G\	.	.	.	16G\	.	.	16B-\	.	.	.	.	.	.	.	.	.	.
!LO:SIC:v:o=16A-X\JJ	!	!	!	!	!	!	!	!	!	!	!	!	!	!	!	!	!
16AJJ	.	.	.	16A\JJ	.	.	16c\JJ	.	.	16d\	-ri-	-ri-	16a\	-ri-	-ri-	.	.
16G\LL	.	8r	8r	16G\LL	.	.	16B-\LL	.	.	4d\	-a	-a	4g/	-a	-a	.	.
!LO:SIC:v:o=16A-X\	!	!	!	!LO:SIC:v:o=16A-X\	!	!	!	!	!	!	!	!	!	!	!	!	!
16A	.	.	.	16A	.	.	16c\	.	.	.	.	.	.	.	.	.	.
!	!	!	!	!	!	!	!LO:SIC:v:o=16d\	!	!	!	!	!	!	!	!	!	!
16G\	.	8b-\	8dd\	16G\	.	.	16B-\	.	.	.	.	.	.	.	.	.	.
!LO:SIC:v:o=16F#\JJ	!	!	!	!	!	!	!LO:SIC:v:o=16B-\JJ	!	!	!	!	!	!	!	!	!	!
16F\JJ	.	.	.	16F\JJ	.	.	16A\JJ	.	.	.	.	.	.	.	.	.	.
=24	=24	=24	=24	=24	=24	=24	=24	=24	=24	=24	=24	=24	=24	=24	=24	=24	=24
*	*	*	*	*	*	*	*	*	*	*	*ij	*	*	*ij	*	*	*
16E-\LL	.	4ee-\	4gg\	8.E-\	.	.	8.e-\	.	.	8.g\	glo-	glo-	16cc\LL	glo-	glo-	0r	0r
16F\	.	.	.	.	.	.	.	.	.	.	.	.	16b-\	.	.	.	.
16E-\	.	.	.	.	.	.	.	.	.	.	.	.	16cc\	.	.	.	.
16D\JJ	.	.	.	16D\	-ri-	-ri-	16e-\	-ri-	-ri-	16g\	-ri-	-ri-	16dd\JJ	.	.	.	.
16C/LL	.	8r	8r	4C/	-a	-a	4e-\	-a	-a	4g\	-a	-a	16cc\LL	.	.	.	.
*	*	*	*	*	*	*	*	*	*	*	*Xij	*	*	*	*	*	*
16D/	.	.	.	.	.	.	.	.	.	.	.	.	16dd\	.	.	.	.
16E-/	.	8ee-\	8gg\	.	.	.	.	.	.	.	.	.	16cc\	.	.	.	.
16C/JJ	.	.	.	.	.	.	.	.	.	.	.	.	16b-\JJ	.	.	.	.
8D\L	.	4ff#X\	8aa\L	8D\L	glo-	glo-	2dt\	glo-	glo-	8f#X\L	glo-	glo-	8.a\	.	.	.	.
!	!	!	!	!	!	!	!	!	!	!LO:SIC:v:o=8e#\J	!	!	!	!	!	!	!
!	!	!	!	!	!	!	!	!	!	!LO:SIC:o=8e\J	!	!	!	!	!	!	!
8En\	.	.	8gg\	8En\	.	.	.	.	.	8e	.	.	.	.	.	.	.
.	.	.	.	.	.	.	.	.	.	.	.	.	16a\	-ri-	-ri-	.	.
!	!	!	!	!LO:TX:a:t=P:problem=# above	!	!	!	!	!	!LO:LB:g=original	!	!	!	!	!	!	!
!	!	!	!	!	!	!	!	!	!	!LO:SIC:o=(8d\L	!	!	!	!	!	!	!
8F#X\	6	8r	8aa\	8F#X\	.	.	.	.	.	8d	.	.	4a\	-a	-a	.	.
*	*	*	*	*	*	*	*	*	*	*	*	*	*	*Xij	*	*	*
!	!	!	!	!	!	!	!	!	!	!LO:SIC:o=8f#X\J)	!	!	!	!	!	!	!
8D\J	.	8dd\	8ff#X\J	8D\J	.	.	.	.	.	8f#J	.	.	.	.	.	.	.
!	!	!	!	!	!	!	!	!	!	!	!	!	!LO:LB:g=original	!	!	!	!
=25	=25	=25	=25	=25	=25	=25	=25	=25	=25	=25	=25	=25	=25	=25	=25	=25	=25
!LO:TX:a:t=P:problem=mixed beam	!	!	!	!	!	!	!	!	!	!	!	!	!	!	!	!	!
8G\L	.	8gg\L	8bb-\L	8G\	.	.	16c\	ri-	ri-	8g\	.	.	8dd\	glo-	glo-	.	.
.	.	.	.	.	.	.	16B-\	-a	-a	.	.	.	.	.	.	.	.
16BB-/L	.	16dd\L	8gg\	16BB-/	-ri-	-ri-	4A\	tu-	tu-	16g\	-ri-	-ri-	16dd\	-ri-	-ri-	.	.
16C/JJ	.	16ee-\JJ	.	16C/	-a	-a	.	.	.	16g\	-a	-a	16ee-\	-a	-a	.	.
!LO:TX:a:t=P:problem=mixed beam	!	!	!	!	!	!	!	!	!	!	!	!	!	!	!	!	!
8D\L	.	8a/L	8.ff#X\	4D\	tu-	tu-	.	.	.	4f#X\	tu-	tu-	4a\	tu-	tu-	.	.
8DD/J	.	8a/J	.	.	.	.	4B-\	-a	-a	.	.	.	.	.	.	.	.
.	.	.	16ff#\Jk	.	.	.	.	.	.	.	.	.	.	.	.	.	.
8GG/L	.	8b-/L	8gg\L	4GG/	-a	-a	.	.	.	4g\	-a	-a	4g\	-a	-a	.	.
8AA/	.	8b-/	8dd\	.	.	.	8ryy	.	.	.	.	.	.	.	.	.	.
8BB-/	.	8b-/	8dd\	4r	.	.	4r	.	.	4r	.	.	4r	.	.	.	.
8GG/J	.	8b-/J	8dd\J	.	.	.	.	.	.	.	.	.	.	.	.	.	.
!LO:LB:g=original	!	!	!	!	!	!	!LO:LB:g=original	!	!	!	!	!	!	!	!	!	!LO:LB:g=original
=26	=26	=26	=26	=26	=26	=26	=26	=26	=26	=26	=26	=26	=26	=26	=26	=26	=26
8AA/L	.	16a/LL	16cc\LL	0r	.	.	0r	.	.	0r	.	.	1r	.	.	2rg	2r
.	.	16b-/	16dd\	.	.	.	.	.	.	.	.	.	.	.	.	.	.
16BB-/L	.	16g/	16b-\	.	.	.	.	.	.	.	.	.	.	.	.	.	.
16C/JJ	.	16a/JJ	16cc\JJ	.	.	.	.	.	.	.	.	.	.	.	.	.	.
!LO:TX:a:t=P:problem=mixed beam	!	!	!	!	!	!	!	!	!	!	!	!	!	!	!	!	!
8D\L	4	8f#X/L	8.a/L	.	.	.	.	.	.	.	.	.	.	.	.	.	.
8DD/J	3	8f#/J	.	.	.	.	.	.	.	.	.	.	.	.	.	.	.
.	.	.	16g/Jk	.	.	.	.	.	.	.	.	.	.	.	.	.	.
8GG/L	.	4g/	4g/	.	.	.	.	.	.	.	.	.	.	.	.	8r	8r
16C/L	.	.	.	.	.	.	.	.	.	.	.	.	.	.	.	8ee-\L	8gg\L
16D/J	.	.	.	.	.	.	.	.	.	.	.	.	.	.	.	.	.
8E-/	.	4r	4r	.	.	.	.	.	.	.	.	.	.	.	.	8ee-\	8gg\
8C/J	.	.	.	.	.	.	.	.	.	.	.	.	.	.	.	8ee-\J	8gg\J
=27	=27	=27	=27	=27	=27	=27	=27	=27	=27	=27	=27	=27	=27-	=27	=27	=27	=27
!	!	!	!LO:TX:a:t=1.:mod=	!	!	!	!	!	!	!	!	!	!	!	!	!	!
8D\L	.	1r	1r	.	.	.	.	.	.	.	.	.	2r	.	.	16dd\LL	16ff\LL
.	.	.	.	.	.	.	.	.	.	.	.	.	.	.	.	16ee-\	16gg\
16E-\L	.	.	.	.	.	.	.	.	.	.	.	.	.	.	.	16cc\	16ee-\
16F\JJ	.	.	.	.	.	.	.	.	.	.	.	.	.	.	.	16dd\JJ	16ff\JJ
!LO:TX:a:t=P:problem=mixed beam	!	!	!	!	!	!	!	!	!	!	!	!	!	!	!	!	!
8G\L	.	.	.	.	.	.	.	.	.	.	.	.	.	.	.	8.g/L	8.dd\L
8GG/J	.	.	.	.	.	.	.	.	.	.	.	.	.	.	.	.	.
.	.	.	.	.	.	.	.	.	.	.	.	.	.	.	.	16f/Jk	16cc\Jk
4C/	.	.	.	.	.	.	.	.	.	.	.	.	16gg\LL	glo-	glo-	4e-/	4cc\
.	.	.	.	.	.	.	.	.	.	.	.	.	16ff\	.	.	.	.
.	.	.	.	.	.	.	.	.	.	.	.	.	16gg\	.	.	.	.
.	.	.	.	.	.	.	.	.	.	.	.	.	16aa-X\JJ	.	.	.	.
8r	.	.	.	.	.	.	.	.	.	.	.	.	16gg\LL	.	.	4r	4r
.	.	.	.	.	.	.	.	.	.	.	.	.	16aa-X\	.	.	.	.
8Bn\	6	.	.	.	.	.	.	.	.	.	.	.	16gg\	.	.	.	.
.	.	.	.	.	.	.	.	.	.	.	.	.	16ff\JJ	.	.	.	.
!	!	!	!LO:LB:g=original	!	!	!	!	!	!	!	!	!	!	!	!	!LO:LB:g=original	!
=28	=28	=28-	=28	=28-	=28	=28	=28-	=28	=28	=28	=28	=28	=28	=28	=28	=28	=28
16c\LL	.	4ee-\	4gg\	16c\LL	glo-	glo-	2r	.	.	8.g\	glo-	glo-	8.ee-\	.	.	4ee-\	4gg\
!	!	!	!	!LO:SIC:v:o=16B-\	!	!	!	!	!	!	!	!	!	!	!	!	!
16Bn\	.	.	.	16B\	.	.	.	.	.	.	.	.	.	.	.	.	.
16c\	.	.	.	16c\	.	.	.	.	.	.	.	.	.	.	.	.	.
!LO:SIC:v:o=16d-X\JJ	!	!	!	!	!	!	!	!	!	!	!	!	!	!	!	!	!
16d\JJ	.	.	.	16d\JJ	.	.	.	.	.	16g\	-ria	-ria	16dd\	-ri-	-ri-	.	.
16c\LL	.	8r	8r	16c\LL	.	.	.	.	.	4g\	.	.	4cc\	-a	-a	8r	8r
!	!	!	!	!LO:SIC:v:o=16d\	!	!	!	!	!	!	!	!	!	!	!	!	!
16d-X\	.	.	.	16d-\	.	.	.	.	.	.	.	.	.	.	.	.	.
16c\	.	8ee-\	8gg\	16c\	.	.	.	.	.	.	.	.	.	.	.	8ee-\	8gg\
16B-X\JJ	.	.	.	16B-\JJ	.	.	.	.	.	.	.	.	.	.	.	.	.
!	!	!	!LO:TX:a:t=P:problem=♭ above	!	!	!	!	!	!	!	!	!	!	!	!	!	!
*	*	*	*	*	*	*	*	*	*	*	*ij	*	*	*ij	*	*	*
16A-X\LL	6	4cc\	4aa-X\	8.A-X\	.	.	16c\LL	glo-	glo-	8.a-X\	glo-	glo-	16ff\LL	glo-	glo-	4a-X/	4cc/
!	!	!	!	!	!	!	!LO:SIC:v:o=16Bn\	!	!	!	!	!	!	!	!	!	!
16B-\	.	.	.	.	.	.	16B-\	.	.	.	.	.	16ee-\	.	.	.	.
16A-\	6	.	.	.	.	.	16c\	.	.	.	.	.	16ff\	.	.	.	.
16G\JJ	.	.	.	16G\	-ri-	-ri-	16d\JJ	.	.	16a-\	-ri-	-ri-	16gg\JJ	.	.	.	.
16F\LL	.	8r	8r	4F\	-a	-a	16c\LL	.	.	4a-\	-a	-a	16ff\LL	.	.	8r	8r
16G\	.	.	.	.	.	.	16d\	.	.	.	.	.	16gg\	.	.	.	.
!	!	!	!LO:TX:a:t=P:problem=♭ above	!	!	!	!	!	!	!	!	!	!	!	!	!	!
16A-X\	.	8cc\	8aa-X\	.	.	.	16c\	.	.	.	.	.	16ff\	.	.	8a-/	8cc\
!LO:SIC:v:o=16F\JJ	!	!	!	!	!	!	!	!	!	!	!	!	!	!	!	!	!
16G\JJ	.	.	.	.	.	.	16B\JJ	.	.	.	.	.	16ee-\JJ	.	.	.	.
=29	=29	=29	=29	=29	=29	=29	=29	=29	=29	=29	=29	=29	=29	=29	=29	=29	=29
*	*	*	*	*	*ij	*	*	*	*	*	*	*	*	*	*	*	*
16B-\LL	.	4dd\	4ff\	16B-\LL	glo-	glo-	8.f\	.	.	8.f\	glo-	glo-	8.dd\	.	.	4dd\	4ff\
16A-X\	.	.	.	16A-X\	.	.	.	.	.	.	.	.	.	.	.	.	.
16B-\	.	.	.	16B-\	.	.	.	.	.	.	.	.	.	.	.	.	.
16c\JJ	.	.	.	16c\JJ	.	.	16B-\	-ri-	-ri-	16f\	-ri-	-ri-	16cc\	-ri-	-ri-	.	.
16B-\LL	.	8r	8r	16B-\LL	.	.	4B-\	-a	-a	4f\	-a	-a	4b-\	-a	-a	8r	8r
*	*	*	*	*	*	*	*	*	*	*	*	*	*	*Xij	*	*	*
16c\	.	.	.	16c\	.	.	.	.	.	.	.	.	.	.	.	.	.
16B-\	.	8dd\	8ff\	16B-\	.	.	.	.	.	.	.	.	.	.	.	8dd\	8ff\
16A-X\JJ	.	.	.	16A-\JJ	.	.	.	.	.	.	.	.	.	.	.	.	.
!	!	!	!	!	!	!	!	!	!	!	!	!	!	!	!	!	!LO:TX:a:t=P:problem=mixed beam
*	*	*	*	*	*	*	*	*ij	*	*	*	*	*	*	*	*	*
8G\L	6	8ee-\L	8gg\L	8G\	.	.	8B-\	glo-	glo-	8g\	glo-	glo-	8ee-\	glo-	glo-	8gg\L	8b-/L
!	!	!	!LO:TX:a:t=P:problem=♭ above	!	!	!	!LO:SIC:v:o=16A\	!	!	!	!	!	!	!	!	!	!
16F\L	.	8ee-\	16aa-X\L	16F\	-ri-	-ri-	16A-\	-ri-	-ri-	16g\	-ri-	-ri-	16ee-\	-ri-	-ri-	8ee-\J	8gg\
!	!	!	!	!	!	!	!LO:SIC:v:o=16A\	!	!	!	!	!	!	!	!	!	!
16E-\JJ	.	.	16gg\JJ	16E-\	-a	-a	16A-\	-a	-a	16g\	-a	-a	16ee-\	-a	-a	.	.
*	*	*	*	*	*Xij	*	*	*Xij	*	*	*Xij	*	*	*	*	*	*
!	!	!	!	!LO:LB:g=original	!	!	!	!	!	!	!	!	!	!	!	!	!
!LO:TX:a:t=P:problem=mixed beam	!	!	!	!LO:TX:a:t=P:problem=mixed beam	!	!	!	!	!	!	!	!	!	!	!	!	!
8B-\L	.	8dd\	8ff\L	8B-\L	tu-	tu-	4B-\	tu-	tu-	4f\	tu-	tu-	4dd\	tu-	tu-	8.b-\L	8.ff\
8BB-/J	4	8dd\J	8bb-\J	8BB-/J	.	.	.	.	.	.	.	.	.	.	.	.	.
.	3	.	.	.	.	.	.	.	.	.	.	.	.	.	.	16b-\Jk	16ee-\Jk
!LO:LB:g=original	!	!LO:LB:g=original	!	!	!	!	!	!	!	!	!	!	!	!	!	!	!
=30	=30	=30	=30	=30	=30	=30	=30	=30	=30	=30	=30	=30	=30	=30	=30	=30	=30
8E-\L	.	4ee-\	4gg\	4E-\	-a	-a	4B-\	-a	-a	4g\	-a	-a	4ee-\	-a	-a	4b-\	4ee-\
16G\L	.	.	.	.	.	.	.	.	.	.	.	.	.	.	.	.	.
16F\JJ	.	.	.	.	.	.	.	.	.	.	.	.	.	.	.	.	.
16E-\LL	.	4r	4r	4r	.	.	4r	.	.	4r	.	.	4r	.	.	4r	4r
16F\	.	.	.	.	.	.	.	.	.	.	.	.	.	.	.	.	.
16E-\	.	.	.	.	.	.	.	.	.	.	.	.	.	.	.	.	.
16D\JJ	.	.	.	.	.	.	.	.	.	.	.	.	.	.	.	.	.
4C/	.	2rg	2r	2rC	.	.	2rG	.	.	2r	.	.	16gg\LL	glo-	glo-	2rg	2r
.	.	.	.	.	.	.	.	.	.	.	.	.	16ff\	.	.	.	.
.	.	.	.	.	.	.	.	.	.	.	.	.	16gg\	.	.	.	.
.	.	.	.	.	.	.	.	.	.	.	.	.	16aa-X\JJ	.	.	.	.
8r	.	.	.	.	.	.	.	.	.	.	.	.	16gg\LL	.	.	.	.
.	.	.	.	.	.	.	.	.	.	.	.	.	16aa-X\	.	.	.	.
8Bn\	6	.	.	.	.	.	.	.	.	.	.	.	16gg\	.	.	.	.
.	.	.	.	.	.	.	.	.	.	.	.	.	16ff\JJ	.	.	.	.
=31	=31	=31	=31	=31	=31	=31	=31	=31	=31	=31	=31	=31	=31	=31	=31	=31	=31
16c\LL	.	4ee-\	4gg\	16c\LL	glo-	glo-	16c\LL	glo-	glo-	8.g\	glo-	glo-	8.ee-\	.	.	4ee-\	4gg\
!	!	!	!	!LO:SIC:v:o=16B-\	!	!	!	!	!	!	!	!	!	!	!	!	!
16Bn\	.	.	.	16B\	.	.	16d\	.	.	.	.	.	.	.	.	.	.
16c\	.	.	.	16c\	.	.	16e-\	.	.	.	.	.	.	.	.	.	.
!LO:SIC:v:o=16d-X\JJ	!	!	!	!	!	!	!	!	!	!	!	!	!	!	!	!	!
16dJJ	.	.	.	16d\JJ	.	.	16c\JJ	.	.	16g\	-ria	-ri-	16dd\	-ri-	-ri-	.	.
16c\LL	.	8r	8r	16c\LL	.	.	16c\LL	.	.	4g\	.	-a	4cc\	-a	-a	8r	8r
!	!	!	!	!LO:SIC:v:o=16d\	!	!	!LO:SIC:v:o=16d\	!	!	!	!	!	!	!	!	!	!
16d-X\	.	.	.	16d-\	.	.	16d-\	.	.	.	.	.	.	.	.	.	.
16c\	.	8ee-\	8gg\	16c\	.	.	16c\	.	.	.	.	.	.	.	.	8ee-\	8gg\
!LO:SIC:v:o=16B\JJ	!	!	!	!	!	!	!	!	!	!	!	!	!	!	!	!	!
16B-\JJ	.	.	.	16B-\JJ	.	.	16B-\JJ	.	.	.	.	.	.	.	.	.	.
!	!	!	!LO:TX:a:t=P:problem=♭ above	!	!	!	!	!	!	!	!	!	!LO:LB:g=original	!	!	!	!
*	*	*	*	*	*	*	*	*	*	*	*ij	*	*	*ij	*	*	*
16A-X\LL	.	4cc\	4aa-X\	8.A-X\	.	.	8.c\	.	.	8.a-X\	glo-	glo-	16ff\LL	glo-	glo-	4a-X/	4cc/
!LO:SIC:v:o=16B\	!	!	!	!	!	!	!	!	!	!	!	!	!	!	!	!	!
16B-\	.	.	.	.	.	.	.	.	.	.	.	.	16ee-\	.	.	.	.
16A-\	.	.	.	.	.	.	.	.	.	.	.	.	16ff\	.	.	.	.
16G\JJ	.	.	.	16G\	-ri-	-ri-	16c\	-ri-	-ri-	16a-\	-ri-	-ri-	16gg\JJ	.	.	.	.
16F\LL	.	8r	8r	4F\	-a	-a	4c\	-a	-a	4a-\	-a	-a	16ff\LL	.	.	8r	8r
*	*	*	*	*	*	*	*	*	*	*	*Xij	*	*	*	*	*	*
16G\	.	.	.	.	.	.	.	.	.	.	.	.	16gg\	.	.	.	.
!	!	!	!LO:TX:a:t=P:problem=♭ above	!	!	!	!	!	!	!	!	!	!	!	!	!	!
16A-X\	.	8cc\	8aa-X\	.	.	.	.	.	.	.	.	.	16ff\	.	.	8a-/	8cc\
16F\JJ	.	.	.	.	.	.	.	.	.	.	.	.	16ee-\JJ	.	.	.	.
=32	=32	=32	=32	=32	=32	=32	=32	=32	=32	=32	=32	=32	=32	=32	=32	=32	=32
!	!	!LO:TX:a:t=P:problem=♮ above	!	!	!	!	!LO:TX:a:t=P:problem=♮ above	!	!	!	!	!	!	!	!	!	!
*	*	*	*	*	*	*	*	*ij	*	*	*	*	*	*	*	*	*
8G\L	.	4bn\	4dd\	8G\L	glo-	glo-	8.Bn\	glo-	glo-	2gT\	glo-	glo-	8.dd\	.	.	4bn/	4dd\
8An\	.	.	.	8An\	.	.	.	.	.	.	.	.	.	.	.	.	.
.	.	.	.	.	.	.	16B\	-ri-	-ri-	.	.	.	16dd\	-ri-	-ri-	.	.
8Bn\	6	8r	8r	8Bn\	.	.	8B\	-a	-a	.	.	.	4dd\	-a	-a	8r	8r
*	*	*	*	*	*	*	*	*	*	*	*	*	*	*Xij	*	*	*
8G\J	.	8b\	8dd\	8G\J	.	.	8r	.	.	.	.	.	.	.	.	8b\	8dd\
!	!	!	!	!	!	!	!LO:LB:g=original	!	!	!	!	!	!	!	!	!	!
4c\	.	4cc\	8ee-\L	8.c\	.	.	8.c\	glo-	glo-	8.g\	.	.	8.ee-\	glo-	glo-	8cc\L	8.ee-\L
.	.	.	8gg\J	.	.	.	.	.	.	.	.	.	.	.	.	8cc\J	.
.	.	.	.	16c\	-ri-	-ri-	16c\	-ri-	-ri-	16g\	-ri-	-ri-	16ee-\	-ri-	-ri-	.	16ee-\Jk
!	!	!	!LO:TX:a:t=P:problem=♭ above	!	!	!	!	!	!	!	!	!	!	!	!	!	!
4F\	.	4cc\	4aa-X\	4F\	-a	-a	4f\	-a	-a	4a-X\	-a	-a	4cc\	-a	-a	4cc\	4ff\
*	*	*	*	*	*	*	*	*Xij	*	*	*	*	*	*	*	*	*
!	!	!	!	!	!	!	!	!	!	!LO:LB:g=original	!	!	!	!	!	!	!
=33	=33	=33	=33	=33	=33	=33	=33	=33	=33	=33	=33	=33	=33	=33	=33	=33	=33
!	!	!LO:SIC:v:o=2ccn\	!	!	!	!	!LO:SIC:v:o=2B-\	!	!	!	!	!	!	!	!	!	!
2G\	.	2b\	2gg\	2G\	tu-	tu-	2Bn\	tu-	tu-	2g\	tu-	tu-	2dd\	tu-	tu-	2g/	2dd\
2C/	.	2cc\	2gg\	2C/	-a	-a	2c\	-a	-a	2g\	-a	-a	2cc\	-a	-a	2en/	2cc\
==	==	==	==	==	==	==	==	==	==	==	==	==	==	==	==	==	==
*-	*-	*-	*-	*-	*-	*-	*-	*-	*-	*-	*-	*-	*-	*-	*-	*-	*-
!!!system-decoration: [(g1)][(g2)][(g3)]s9
!!!RDF**kern: < = below
!!!ENC: Andrzej Gręziak
!!!END: 2020-04-30
!!!ENC: Marta Lawrence
!!!END: 2020-12-03
!!!ENC-modern: Marta Lawrence
!!!END-modern: 2023-08-27
!!!filter-modern: sic -sq | tie -s | autostem -r | shed -e "s/-//B" | humtr -p | shed -e "s/yy//" | shed -k -e "s/([^a-gA-Gn#X-])[<>]/$1/g" | shed -e "s/:rj/:RJ/L" | shed -e "s/TX(.*):t=P:/tx$1:t=P:/LG" | shed -k -e "s/r[a-gA-G]+/r/D" | shed -e "s/LO:N:/LO:n:$1/L" | shed -k -e "s/([#-])[X]/$1/g; s/[n]/$1/g;" | modori -m
